frontend/src/images/save.svg

<svg xmlns="http://www.w3.org/2000/svg" xmlns:xlink="http://www.w3.org/1999/xlink" viewBox="0,0,256,256" width="64px" height="64px"><g fill="none" fill-rule="nonzero" stroke="none" stroke-width="1" stroke-linecap="butt" stroke-linejoin="miter" stroke-miterlimit="10" stroke-dasharray="" stroke-dashoffset="0" font-family="none" font-weight="none" font-size="none" text-anchor="none" style="mix-blend-mode: normal"><g transform="scale(4,4)"><path d="M55,57h-46c-1.10457,0 -2,-0.89543 -2,-2v-46c0,-1.10457 0.89543,-2 2,-2h38c0.52958,0.00223 1.03665,0.21441 1.41,0.59l8,8c0.37559,0.37335 0.58777,0.88042 0.59,1.41v38c0,1.10457 -0.89543,2 -2,2z" fill="#cda1a7"></path><rect x="15" y="31" width="34" height="26" rx="2" ry="2" fill="#faefde"></rect><rect x="-45" y="-25" transform="rotate(180)" width="30" height="18" rx="2" ry="2" fill="#faefde"></rect><path d="M45,7h-7.92l-14.25,18h12.84l9.33,-11.79zM15,18.89l9.42,-11.89h-1.17l-8.25,10.42zM27.92,7l-12.92,16.32v1.68h4.17l14.25,-18z" fill="#efd8be"></path><rect x="37" y="11" width="4" height="10" rx="2" ry="2" fill="#fff7f0"></rect><path d="M19,50h26c2.20914,0 4,1.79086 4,4v3h-34v-3c0,-2.20914 1.79086,-4 4,-4z" fill="#efd8be"></path><path d="M56.54,14.12l-6.66,-6.66c-0.93951,-0.93714 -2.21301,-1.46237 -3.54,-1.46h-37.34c-1.65685,0 -3,1.34315 -3,3v46c0,1.65685 1.34315,3 3,3h46c1.65685,0 3,-1.34315 3,-3v-37.34c0.00237,-1.32699 -0.52286,-2.60049 -1.46,-3.54zM44,8v15c0,0.55228 -0.44772,1 -1,1h-26c-0.55228,0 -1,-0.44772 -1,-1v-15zM16,56v-23c0,-0.55228 0.44772,-1 1,-1h30c0.55228,0 1,0.44772 1,1v23zM56,55c0,0.55228 -0.44772,1 -1,1h-5v-23c0,-1.65685 -1.34315,-3 -3,-3h-30c-1.65685,0 -3,1.34315 -3,3v23h-5c-0.55228,0 -1,-0.44772 -1,-1v-46c0,-0.55228 0.44772,-1 1,-1h5v15c0,1.65685 1.34315,3 3,3h26c1.65685,0 3,-1.34315 3,-3v-15h0.34c0.79538,0.0007 1.55793,0.31723 2.12,0.88l6.66,6.66c0.56277,0.56207 0.8793,1.32462 0.88,2.12z" fill="#8d6c9f"></path><path d="M39,38h4c0.55228,0 1,-0.44772 1,-1c0,-0.55228 -0.44772,-1 -1,-1h-4c-0.55228,0 -1,0.44772 -1,1c0,0.55228 0.44772,1 1,1zM21,38h14c0.55228,0 1,-0.44772 1,-1c0,-0.55228 -0.44772,-1 -1,-1h-14c-0.55228,0 -1,0.44772 -1,1c0,0.55228 0.44772,1 1,1zM39,40h-18c-0.55228,0 -1,0.44772 -1,1c0,0.55228 0.44772,1 1,1h18c0.55228,0 1,-0.44772 1,-1c0,-0.55228 -0.44772,-1 -1,-1z" fill="#8d6c9f"></path><path d="M19,48c-0.55228,0 -1,0.44772 -1,1v2c0,0.55228 0.44772,1 1,1c0.55228,0 1,-0.44772 1,-1v-2c0,-0.55228 -0.44772,-1 -1,-1zM24,48c-0.55228,0 -1,0.44772 -1,1v2c0,0.55228 0.44772,1 1,1c0.55228,0 1,-0.44772 1,-1v-2c0,-0.55228 -0.44772,-1 -1,-1zM29,48c-0.55228,0 -1,0.44772 -1,1v2c0,0.55228 0.44772,1 1,1c0.55228,0 1,-0.44772 1,-1v-2c0,-0.55228 -0.44772,-1 -1,-1zM34,48c-0.55228,0 -1,0.44772 -1,1v2c0,0.55228 0.44772,1 1,1c0.55228,0 1,-0.44772 1,-1v-2c0,-0.55228 -0.44772,-1 -1,-1zM39,48c-0.55228,0 -1,0.44772 -1,1v2c0,0.55228 0.44772,1 1,1c0.55228,0 1,-0.44772 1,-1v-2c0,-0.55228 -0.44772,-1 -1,-1zM44,48c-0.55228,0 -1,0.44772 -1,1v2c0,0.55228 0.44772,1 1,1c0.55228,0 1,-0.44772 1,-1v-2c0,-0.55228 -0.44772,-1 -1,-1zM39,22c1.65685,0 3,-1.34315 3,-3v-6c0,-1.65685 -1.34315,-3 -3,-3c-1.65685,0 -3,1.34315 -3,3v6c0,1.65685 1.34315,3 3,3zM38,13c0,-0.55228 0.44772,-1 1,-1c0.55228,0 1,0.44772 1,1v6c0,0.55228 -0.44772,1 -1,1c-0.55228,0 -1,-0.44772 -1,-1z" fill="#8d6c9f"></path></g></g></svg>

<svg xmlns="http://www.w3.org/2000/svg"  viewBox="0 0 64 64" width="64px" height="64px"><path fill="#c2cde7" d="M55,57H9a2,2,0,0,1-2-2V9A2,2,0,0,1,9,7H47a2,2,0,0,1,1.41.59l8,8A2,2,0,0,1,57,17V55A2,2,0,0,1,55,57Z"/><rect width="34" height="26" x="15" y="31" fill="#faefde" rx="2" ry="2"/><rect width="30" height="18" x="15" y="7" fill="#bbdef9" rx="2" ry="2" transform="rotate(180 30 16)"/><path fill="#def0ff" d="M45 7L37.08 7 22.83 25 35.67 25 45 13.21 45 7zM15 18.89L24.42 7 23.25 7 15 17.42 15 18.89zM27.92 7L15 23.32 15 25 19.17 25 33.42 7 27.92 7z"/><rect width="4" height="10" x="37" y="11" fill="#ffeb9b" rx="2" ry="2"/><path fill="#efd8be" d="M19,50H45a4,4,0,0,1,4,4v3a0,0,0,0,1,0,0H15a0,0,0,0,1,0,0V54A4,4,0,0,1,19,50Z"/><path fill="#8d6c9f" d="M56.54,14.12,49.88,7.46A5,5,0,0,0,46.34,6H9A3,3,0,0,0,6,9V55a3,3,0,0,0,3,3H55a3,3,0,0,0,3-3V17.66A5,5,0,0,0,56.54,14.12ZM44,8V23a1,1,0,0,1-1,1H17a1,1,0,0,1-1-1V8ZM16,56V33a1,1,0,0,1,1-1H47a1,1,0,0,1,1,1V56Zm40-1a1,1,0,0,1-1,1H50V33a3,3,0,0,0-3-3H17a3,3,0,0,0-3,3V56H9a1,1,0,0,1-1-1V9A1,1,0,0,1,9,8h5V23a3,3,0,0,0,3,3H43a3,3,0,0,0,3-3V8h.34a3,3,0,0,1,2.12.88l6.66,6.66A3,3,0,0,1,56,17.66Z"/><path fill="#eb9697" d="M39 38h4a1 1 0 0 0 0-2H39a1 1 0 0 0 0 2zM21 38H35a1 1 0 0 0 0-2H21a1 1 0 0 0 0 2zM39 40H21a1 1 0 0 0 0 2H39a1 1 0 0 0 0-2z"/><path fill="#8d6c9f" d="M19 48a1 1 0 0 0-1 1v2a1 1 0 0 0 2 0V49A1 1 0 0 0 19 48zM24 48a1 1 0 0 0-1 1v2a1 1 0 0 0 2 0V49A1 1 0 0 0 24 48zM29 48a1 1 0 0 0-1 1v2a1 1 0 0 0 2 0V49A1 1 0 0 0 29 48zM34 48a1 1 0 0 0-1 1v2a1 1 0 0 0 2 0V49A1 1 0 0 0 34 48zM39 48a1 1 0 0 0-1 1v2a1 1 0 0 0 2 0V49A1 1 0 0 0 39 48zM44 48a1 1 0 0 0-1 1v2a1 1 0 0 0 2 0V49A1 1 0 0 0 44 48zM39 22a3 3 0 0 0 3-3V13a3 3 0 0 0-6 0v6A3 3 0 0 0 39 22zm-1-9a1 1 0 0 1 2 0v6a1 1 0 0 1-2 0z"/></svg>
